static/logos/myMind-glyph-color.svg

<svg width="39" height="50" viewBox="0 0 39 50" fill="none" xmlns="http://www.w3.org/2000/svg">
<g clip-path="url(#clip0_1_1888)">
<path fill-rule="evenodd" clip-rule="evenodd" d="M17.1785 2.91914L17.1635 2.91704C16.8661 2.8749 16.4683 2.86935 15.8019 2.86935C14.6582 2.86935 13.4991 3.0463 12.3157 3.41394C8.64412 4.65836 5.59538 7.91511 3.96277 13.037C2.40093 18.0254 2.50234 24.0354 4.3467 29.9499C7.44308 39.6529 14.4304 46.1788 21.0587 46.9849L21.0654 46.9857C21.4759 47.0365 21.9163 47.04 22.4765 47.04C23.6203 47.04 24.7793 46.863 25.9627 46.4954C29.668 45.2399 32.7604 42.0347 34.3043 36.9092L34.3089 36.8937L34.3137 36.8786C35.8776 31.8886 35.7769 25.876 33.9315 19.9588C30.8419 10.2776 23.8576 3.79396 17.1934 2.92112L17.1785 2.91914ZM36.6697 19.0964C38.6645 25.4873 38.8177 32.1063 37.0533 37.7364C35.2886 43.5947 31.6061 47.6269 26.8496 49.2245C25.3918 49.6811 23.9341 49.9093 22.4765 49.9093C21.9395 49.9093 21.3257 49.9093 20.7119 49.8332C12.5797 48.8442 4.90767 41.1599 1.60871 30.8129C-0.385999 24.422 -0.53944 17.803 1.22512 12.173C3.06638 6.39082 6.67225 2.28243 11.4288 0.684731C12.8865 0.228243 14.3442 0 15.8019 0C16.4157 0 17.0294 0 17.5664 0.0760813C25.6988 1.14122 33.3707 8.74934 36.6697 19.0964Z" fill="#748297"/>
<path d="M15.4835 23.5666C16.9241 23.5666 18.0919 22.4084 18.0919 20.9798C18.0919 19.5513 16.9241 18.393 15.4835 18.393C14.0429 18.393 12.875 19.5513 12.875 20.9798C12.875 22.4084 14.0429 23.5666 15.4835 23.5666Z" fill="#748297"/>
<path fill-rule="evenodd" clip-rule="evenodd" d="M15.4854 18.442C14.0713 18.442 12.9257 19.5786 12.9257 20.98C12.9257 22.3814 14.0713 23.518 15.4854 23.518C16.8994 23.518 18.045 22.3814 18.045 20.98C18.045 19.5786 16.8994 18.442 15.4854 18.442ZM12.8281 20.98C12.8281 19.5241 14.0182 18.3445 15.4854 18.3445C16.9526 18.3445 18.1426 19.5241 18.1426 20.98C18.1426 22.4359 16.9526 23.6154 15.4854 23.6154C14.0182 23.6154 12.8281 22.4359 12.8281 20.98Z" fill="white"/>
<path d="M28.067 32.9245L19.7812 11.6978L32.7469 31.0986L28.067 32.9245Z" fill="#748297"/>
</g>
<defs>
<clipPath id="clip0_1_1888">
<rect width="38.4615" height="50" fill="white"/>
</clipPath>
</defs>
</svg>

<svg xmlns="http://www.w3.org/2000/svg" width="49.92" height="64" fill="none" viewBox="0 0 39 50"><g clip-path="url(#a)"><path fill="#748297" fill-rule="evenodd" d="m17.178 2.92-.015-.003c-.297-.042-.695-.048-1.361-.048-1.144 0-2.303.177-3.486.545-3.672 1.244-6.72 4.501-8.353 9.623-1.562 4.988-1.46 10.998.384 16.913 3.096 9.703 10.083 16.229 16.712 17.035h.006c.41.051.851.055 1.412.055 1.143 0 2.302-.177 3.486-.545 3.705-1.255 6.797-4.46 8.341-9.586l.005-.015.005-.015c1.564-4.99 1.463-11.003-.383-16.92-3.09-9.681-10.073-16.165-16.738-17.038l-.015-.002ZM36.67 19.095c1.994 6.391 2.148 13.01.383 18.64-1.764 5.859-5.447 9.89-10.203 11.489a14.561 14.561 0 0 1-4.373.684c-.538 0-1.151 0-1.765-.076-8.132-.989-15.804-8.673-19.103-19.02-1.995-6.391-2.148-13.01-.384-18.64C3.066 6.391 6.672 2.283 11.43.685A14.564 14.564 0 0 1 15.802 0c.614 0 1.227 0 1.764.076C25.7 1.141 33.371 8.75 36.67 19.096Z" clip-rule="evenodd"/><path fill="#748297" d="M15.483 23.567a2.598 2.598 0 0 0 2.609-2.587 2.598 2.598 0 0 0-2.608-2.587 2.598 2.598 0 0 0-2.609 2.587 2.598 2.598 0 0 0 2.608 2.587Z"/><path fill="#fff" fill-rule="evenodd" d="M15.485 18.442a2.549 2.549 0 0 0-2.56 2.538 2.549 2.549 0 0 0 2.56 2.538 2.549 2.549 0 0 0 2.56-2.538 2.549 2.549 0 0 0-2.56-2.538Zm-2.657 2.538c0-1.456 1.19-2.636 2.657-2.636a2.646 2.646 0 0 1 2.658 2.636 2.646 2.646 0 0 1-2.658 2.635c-1.467 0-2.657-1.18-2.657-2.635Z" clip-rule="evenodd"/><path fill="#748297" d="m28.067 32.925-8.286-21.227 12.966 19.4-4.68 1.827Z"/></g><defs><clipPath id="a"><path fill="#fff" d="M0 0h38.462v50H0z"/></clipPath></defs></svg>
